X:110
T:The Green Fields of Glen Town
M:4/4
L:1/8
R:reel
C:Tommy Peoples
N:Learned from Howard Chu (through sheet music)
Z:Howard Chu
K:Ador
|:EA, (3A,A,A, E2DB,|G,B, (3B,B,B, G,A,B,D|EA, (3A,A,A, E2DE|GBeB dBAd|
eBBA B3G|AE (3EEE DG,B,D|EA,A,G, A,B,CE|DCB,G, A,4:|
|:A2EA cAEF|GEDB, G,A,B,D|E2AG EGBd|edBA agea|
bg (3ggg agge|dB (3BBB AEDB,|A,2A,G, A,B,CE|DCB,G, A,4:|
|:A2EA (3Bcd eg|aged bage|dG (3GGG edef|g2dg (3efg dg|
eA (3AAA gedB|AE (3EEE GEDB,|A,2A,G, A,B,CE|DCB,G, A,4:|
